icons/price-tag-2-fill.svg

<svg xmlns="http://www.w3.org/2000/svg" width="24" height="24" fill="none"><g clip-path="url(#a)"><g><path fill="#121212" d="M3 6.99999L11.445 1.36999C11.6093 1.26035 11.8025 1.20184 12 1.20184C12.1975 1.20184 12.3907 1.26035 12.555 1.36999L21 6.99999V21C21 21.2652 20.8946 21.5196 20.7071 21.7071C20.5196 21.8946 20.2652 22 20 22H4C3.73478 22 3.48043 21.8946 3.29289 21.7071C3.10536 21.5196 3 21.2652 3 21V6.99999ZM12 11C12.5304 11 13.0391 10.7893 13.4142 10.4142C13.7893 10.0391 14 9.53043 14 8.99999C14 8.46956 13.7893 7.96085 13.4142 7.58578C13.0391 7.21071 12.5304 6.99999 12 6.99999C11.4696 6.99999 10.9609 7.21071 10.5858 7.58578C10.2107 7.96085 10 8.46956 10 8.99999C10 9.53043 10.2107 10.0391 10.5858 10.4142C10.9609 10.7893 11.4696 11 12 11ZM8 16V18H16V16H8ZM8 13V15H16V13H8Z"/></g></g><defs><clipPath id="a"><rect width="24" height="24" fill="white"/></clipPath></defs></svg>

<svg width="24" height="24" fill="none" xmlns="http://www.w3.org/2000/svg"><g clip-path="url(#a)"><path d="m3 7 8.445-5.63a1 1 0 0 1 1.11 0L21 7v14a1 1 0 0 1-1 1H4a1 1 0 0 1-1-1V7Zm9 4a2 2 0 1 0 0-4 2 2 0 0 0 0 4Zm-4 5v2h8v-2H8Zm0-3v2h8v-2H8Z" /></g><defs><clipPath id="a"><path fill="#fff" d="M0 0h24v24H0z"/></clipPath></defs></svg>
